X: 1
T:The Shoreline of Lewis
M:6/8
L:1/8
Q:80
C:Arr. P/M Donald MacLeod, MBE
S:Slow Air
K:HP
|: e|
{g}A3/2{d}B/2de/2{g}d3/2e|
{g}f3/2e/2{g}de/2{g}B3/2d|
{g}A3/2{d}B/2d{g}d/2f3/2d|  !
{g}e2f{g}e2|2 f:|2 |
{g}A3/2{d}B/2de/2{g}d3/2e|
{g}f3/2e/2{g}de/2{g}B3/2d|  !
{gde}d3/2B/2d{g}B/2{d}A3/2{d}B|
{Gdc}d3{gdG}d2:| |:
{gf}g|  !
a2{GdG}af/2{g}d3/2f|
{gef}e3/2{g}d/2ef/2{g}B3/2d|
{g}A3/2{d}B/2d{g}d/2f3/2d|  !
{g}e2f{g}e2|1 {gf}g|1 |
a2{GdG}af/2{g}d3/2f|
{gef}e3/2{g}d/2ef/2{g}B3/2d|  !
{gde}d3/2B/2d{g}B/2{d}A3/2{d}B|
{Gdc}d3{gdG}d2:|
